X:1
T: The Collier's Reel
C:
R:Reel
Q: 232
K:G
M:4/4
L:1/8
|:G|((3FED) FG A2 AB|cA dB cA GB|Ad dc d2 de|fd ec dc AG|
FE FG A2 AB|cA dB cA GB|Ad dc A2 AG|EF GE FD Dg|
fd eg fd ec|Ad dc Ad dg|fd eg fd ec|AB cd e2 fg|
ag fa gf eg|fd ed cA Gc|Ad dc A2 AG|EF GE FD D:|
